%
(Header)
(Generated by gcodetools from Inkscape.)
(Using default header. To add your own header create file "header" in the output dir.)
M3
(Header end.)
G21 (All units in mm)

;G02 X50 Y50 


(Start cutting path id: line25)
(Change tool to Default tool)

G00 Z5.000000
G00 X7.055556 Y76.011112

G01 Z-1.000000 F100.0(Penetrate)
G01 X23.988889 Y92.944445 Z-1.000000 F400.000000
G00 Z5.000000

(End cutting path id: line25)


(Start cutting path id: line23)
(Change tool to Default tool)

G00 Z5.000000
G00 X7.055556 Y92.944445

G01 Z-1.000000 F100.0(Penetrate)
G01 X23.988889 Y76.011112 Z-1.000000 F400.000000
G00 Z5.000000

(End cutting path id: line23)


(Start cutting path id: rect21)
(Change tool to Default tool)

G00 Z5.000000
G00 X7.055556 Y92.944445

G01 Z-1.000000 F100.0(Penetrate)
G01 X23.988889 Y92.944445 Z-1.000000 F400.000000
G01 X23.988889 Y76.011112 Z-1.000000
G01 X7.055556 Y76.011112 Z-1.000000
G01 X7.055556 Y92.944445 Z-1.000000
G00 Z5.000000

(End cutting path id: rect21)


(Start cutting path id: rect19)
(Change tool to Default tool)

G00 Z5.000000
G00 X8.466667 Y91.533334

G01 Z-1.000000 F100.0(Penetrate)
G01 X22.577778 Y91.533334 Z-1.000000 F400.000000
G01 X22.577778 Y77.422223 Z-1.000000
G01 X8.466667 Y77.422223 Z-1.000000
G01 X8.466667 Y91.533334 Z-1.000000
G00 Z5.000000

(End cutting path id: rect19)


(Start cutting path id: rect17)
(Change tool to Default tool)

G00 Z5.000000
G00 X9.877778 Y90.122223

G01 Z-1.000000 F100.0(Penetrate)
G01 X21.166667 Y90.122223 Z-1.000000 F400.000000
G01 X21.166667 Y78.833334 Z-1.000000
G01 X9.877778 Y78.833334 Z-1.000000
G01 X9.877778 Y90.122223 Z-1.000000
G00 Z5.000000

(End cutting path id: rect17)


(Start cutting path id: rect15)
(Change tool to Default tool)

G00 Z5.000000
G00 X11.288889 Y88.711112

G01 Z-1.000000 F100.0(Penetrate)
G01 X19.755556 Y88.711112 Z-1.000000 F400.000000
G01 X19.755556 Y80.244445 Z-1.000000
G01 X11.288889 Y80.244445 Z-1.000000
G01 X11.288889 Y88.711112 Z-1.000000
G00 Z5.000000

(End cutting path id: rect15)


(Start cutting path id: rect13)
(Change tool to Default tool)

G00 Z5.000000
G00 X12.700000 Y87.300001

G01 Z-1.000000 F100.0(Penetrate)
G01 X18.344445 Y87.300001 Z-1.000000 F400.000000
G01 X18.344445 Y81.655556 Z-1.000000
G01 X12.700000 Y81.655556 Z-1.000000
G01 X12.700000 Y87.300001 Z-1.000000
G00 Z5.000000

(End cutting path id: rect13)


(Start cutting path id: rect11)
(Change tool to Default tool)

G00 Z5.000000
G00 X14.111111 Y85.888889

G01 Z-1.000000 F100.0(Penetrate)
G01 X16.933333 Y85.888889 Z-1.000000 F400.000000
G01 X16.933333 Y83.066667 Z-1.000000
G01 X14.111111 Y83.066667 Z-1.000000
G01 X14.111111 Y85.888889 Z-1.000000
G00 Z5.000000

(End cutting path id: rect11)


(Footer)
M5
G00 X0.0000 Y0.0000
M2
(Using default footer. To add your own footer create file "footer" in the output dir.)
(end)
%





























