;PYCAM-META-DATA: Filename: None
;PYCAM-META-DATA: Timestamp: 2017-03-05 14:45:59.814000
;PYCAM-META-DATA: Version: 0.5.1.1
;Estimated machine time: 3 minutes
G40 (disable tool radius compensation)
G49 (disable tool length compensation)
G80 (cancel modal motion)
G54 (select coordinate system 1)
G90 (disable incremental moves)
G21 (metric)
G61 (exact path mode)
F200.00000
S1000.00000
;PYCAM_TOOLPATH_SETTINGS: START
;[Bounds]
;maxz = 0.0
;maxx = 41.810128565
;maxy = 8.5059927
;minx = -2.437284415
;miny = 0.5903643
;minz = 0.0
;
;[Tool]
;torus_radius = 0.25
;speed = 1000.0
;shape = CylindricalCutter
;tool_radius = 1.5
;feedrate = 200.0
;
;[Process]
;generator = EngraveCutter
;pocketing_type = none
;engrave_offset = 0.0
;milling_style = conventional
;path_direction = x
;step_down = 1.0
;postprocessor = SimpleCutter
;overlap_percent = 0
;material_allowance = 0.0
;
;PYCAM_TOOLPATH_SETTINGS: END
T1 M6
G0 Z25.0000
M3 (start spindle)
G04 P3 (wait for 3 seconds)
 X5.6083 Y8.5060
G1 Z0.0000
 X5.6270 Y8.4889
 X5.7580 Y8.3302
 X5.8671 Y8.1581
 X5.9497 Y7.9726
 X6.0069 Y7.7735
 X6.0433 Y7.5609
 X6.0542 Y7.3348
 X6.0430 Y7.0952
 X6.0037 Y6.8421
 X5.0623
 X5.0885 Y7.0071
 X5.0947 Y7.1602
 X5.0918 Y7.3014
 X5.0768 Y7.4305
 X5.0422 Y7.5477
 X4.9949 Y7.6529
 X4.9342 Y7.7462
 X4.8597 Y7.8276
 X4.7714 Y7.8982
 X4.6763 Y7.9594
 X4.5699 Y8.0112
 X4.4523 Y8.0536
 X4.3264 Y8.0865
 X4.1880 Y8.1101
 X4.0422 Y8.1242
 X3.8872 Y8.1289
 X3.7269 Y8.1239
 X3.5752 Y8.1086
 X3.4266 Y8.0832
 X3.2851 Y8.0477
 X3.1475 Y8.0020
 X3.0142 Y7.9461
 X2.8890 Y7.8801
 X2.7680 Y7.8039
 X2.6513 Y7.7178
 X2.5513 Y7.6218
 X2.4572 Y7.5160
 X2.3781 Y7.4005
 X2.3072 Y7.2752
 X2.2496 Y7.1400
 X2.2053 Y6.9950
 X2.1674 Y6.8402
 X2.1484 Y6.6880
 X2.1422 Y6.5450
 X2.1451 Y6.4113
 X2.1666 Y6.2868
 X2.2060 Y6.1716
 X2.2584 Y6.0655
 X2.3269 Y5.9688
 X2.4067 Y5.8813
 X2.5028 Y5.7975
 X2.6121 Y5.7118
 X2.7389 Y5.6243
 X2.8732 Y5.5350
 X3.0274 Y5.4439
 X3.1930 Y5.3509
 X3.3728 Y5.2561
 X3.7670 Y5.0599
 X3.7671 Y5.0603
 X3.9605 Y4.9577
 X4.1556 Y4.8518
 X4.3501 Y4.7426
 X4.5425 Y4.6300
 X4.7280 Y4.5141
 X4.9184 Y4.3949
 X5.1013 Y4.2723
 X5.2683 Y4.1365
 X5.4069 Y3.9773
 X5.5127 Y3.7949
 X5.5933 Y3.5892
 X5.6389 Y3.3603
 X5.6585 Y3.1081
 X5.6426 Y2.8326
 X5.5979 Y2.5340
 X5.5322 Y2.2519
 X5.4468 Y1.9850
 X5.3396 Y1.7332
 X5.2083 Y1.4965
 X5.0541 Y1.2750
 X4.8860 Y1.0685
 X4.6916 Y0.8772
 X4.4766 Y0.7010
 X4.3135 Y0.5904
G0 Z25.0000
 X0.6702
G1 Z0.0000
 X0.5366 Y0.7048
 X0.3769 Y0.8819
 X0.2453 Y1.0740
 X0.1390 Y1.2811
 X0.0663 Y1.5032
 X0.0194 Y1.7402
 X0.0000 Y1.9923
 X0.0115 Y2.2594
 X0.0533 Y2.5414
 X0.9987
 X0.9729 Y2.3526
 X0.9646 Y2.1761
 X0.9783 Y2.0120
 X1.0083 Y1.8603
 X1.0614 Y1.7210
 X1.1359 Y1.5941
 X1.2285 Y1.4796
 X1.3380 Y1.3775
 X1.4644 Y1.2876
 X1.5989 Y1.2097
 X1.7419 Y1.1438
 X1.8902 Y1.0898
 X2.0429 Y1.0479
 X2.2112 Y1.0179
 X2.3836 Y0.9999
 X2.5630 Y0.9939
 X2.7671 Y1.0005
 X2.9647 Y1.0201
 X3.1533 Y1.0529
 X3.3360 Y1.0988
 X3.5064 Y1.1578
 X3.6680 Y1.2299
 X3.8215 Y1.3151
 X3.9652 Y1.4134
 X4.0981 Y1.5228
 X4.2147 Y1.6413
 X4.3208 Y1.7689
 X4.4160 Y1.9056
 X4.4955 Y2.0515
 X4.5623 Y2.2063
 X4.6161 Y2.3703
 X4.6585 Y2.5433
 X4.6784 Y2.7126
 X4.6791 Y2.8717
 X4.6573 Y3.0207
 X4.6176 Y3.1596
 X4.5498 Y3.2883
 X4.4639 Y3.4070
 X4.3554 Y3.5155
 X4.2275 Y3.6138
 X4.0801 Y3.7082
 X3.9304 Y3.8048
 X3.7647 Y3.9036
 X3.5934 Y4.0045
 X3.4146 Y4.1076
 X3.2295 Y4.2129
 X3.0291 Y4.3204
 X2.8275 Y4.4301
 X2.6231 Y4.5430
 X2.4324 Y4.6602
 X2.2527 Y4.7817
 X2.0832 Y4.9074
 X1.9269 Y5.0375
 X1.7810 Y5.1718
 X1.6498 Y5.3104
 X1.5296 Y5.4533
 X1.4222 Y5.6020
 X1.3376 Y5.7581
 X1.2700 Y5.9216
 X1.2229 Y6.0924
 X1.1974 Y6.2706
 X1.1877 Y6.4563
 X1.1953 Y6.6493
 X1.2278 Y6.8497
 X1.2839 Y7.0920
 X1.3622 Y7.3229
 X1.4589 Y7.5424
 X1.5828 Y7.7505
 X1.7221 Y7.9473
 X1.8834 Y8.1325
 X2.0695 Y8.3065
 X2.2696 Y8.4691
 X2.3239 Y8.5060
G0 Z25.0000
 X8.9460 Y0.5904
G1 Z0.0000
 X8.9242 Y0.7354
 X8.9297 Y0.9914
 X8.9692 Y1.2868
 X9.8327 Y5.8312
 X8.7444
 X8.9052 Y6.6778
 X9.9935
 X10.3409 Y8.5060
 X11.2252
 X10.8778 Y6.6778
 X12.2617
 X12.1009 Y5.8312
 X10.7170
 X9.8521 Y1.2792
 X9.8459 Y1.2124
 X9.8452 Y1.1544
 X9.8522 Y1.1054
 X9.8687 Y1.0652
 X9.8918 Y1.0341
 X9.9268 Y1.0118
 X9.9720 Y0.9984
 X10.0215 Y0.9939
 X10.9966
 X10.9199 Y0.5904
G0 Z25.0000
 X14.6792
G1 Z0.0000
 X14.5355 Y0.7686
 X14.3974 Y0.9958
 X14.2837 Y1.2426
 X14.1882 Y1.4983
 X14.1174 Y1.7629
 X14.0759 Y2.0365
 X14.0491 Y2.3190
 X14.0504 Y2.6103
 X14.0755 Y2.9106
 X14.1241 Y3.2198
 X14.1940 Y3.5344
 X14.2839 Y3.8392
 X14.3940 Y4.1345
 X14.5260 Y4.4202
 X14.6725 Y4.6962
 X14.8417 Y4.9626
 X15.0286 Y5.2194
 X15.2372 Y5.4666
 X15.4617 Y5.6937
 X15.6897 Y5.8906
 X15.9269 Y6.0572
 X16.1714 Y6.1935
 X16.4239 Y6.2996
 X16.6784 Y6.3753
 X16.9431 Y6.4207
 X17.2206 Y6.4359
 X17.4900 Y6.4233
 X17.7434 Y6.3856
 X17.9819 Y6.3228
 X18.1947 Y6.2349
 X18.3965 Y6.1218
 X18.5753 Y5.9836
 X18.7402 Y5.8203
 X18.8806 Y5.6319
 X19.0036 Y5.4194
 X19.1010 Y5.1841
 X19.1680 Y4.9259
 X19.2132 Y4.6448
 X19.2327 Y4.3408
 X19.2222 Y4.0139
 X19.1883 Y3.6643
 X19.1281 Y3.2916
 X15.0793
 X15.0635 Y3.2085
 X15.0231 Y2.9429
 X14.9982 Y2.6941
 X14.9933 Y2.4620
 X15.0017 Y2.2467
 X15.0313 Y2.0482
 X15.0786 Y1.8665
 X15.1458 Y1.7014
 X15.2298 Y1.5533
 X15.3282 Y1.4221
 X15.4310 Y1.3085
 X15.5461 Y1.2124
 X15.6679 Y1.1337
 X15.7952 Y1.0726
 X15.9270 Y1.0289
 X16.0712 Y1.0027
 X16.2208 Y0.9939
 X16.3672 Y0.9977
 X16.5089 Y1.0091
 X16.6470 Y1.0279
 X16.7770 Y1.0544
 X16.9051 Y1.0884
 X17.0266 Y1.1300
 X17.1408 Y1.1791
 X17.2497 Y1.2358
 X17.3550 Y1.3035
 X17.4603 Y1.3859
 X17.5575 Y1.4828
 X17.6509 Y1.5943
 X17.7407 Y1.7204
 X17.8305 Y1.8611
 X17.9136 Y2.0164
 X17.9990 Y2.1862
 X18.9912
 X18.9074 Y1.9502
 X18.8081 Y1.7257
 X18.6954 Y1.5128
 X18.5676 Y1.3116
 X18.4225 Y1.1220
 X18.2701 Y0.9439
 X18.0996 Y0.7775
 X17.9120 Y0.6226
 X17.8669 Y0.5904
G0 Z25.0000
 X22.1806
G1 Z0.0000
 X23.1075 Y5.4684
 X22.1347
 X22.2955 Y6.3149
 X23.2683
 X23.2816 Y6.3848
 X23.3556 Y6.7211
 X23.4420 Y7.0346
 X23.5403 Y7.3252
 X23.6529 Y7.5930
 X23.7785 Y7.8380
 X23.9171 Y8.0601
 X24.0693 Y8.2595
 X24.2362 Y8.4360
 X24.3159 Y8.5060
 X26.6009
 X26.4643 Y7.7869
 X26.3484 Y7.8671
 X26.2349 Y7.9366
 X26.1150 Y7.9953
 X25.9974 Y8.0435
 X25.8812 Y8.0809
 X25.7625 Y8.1075
 X25.6461 Y8.1236
 X25.5261 Y8.1289
 X25.3979 Y8.1217
 X25.2752 Y8.1000
 X25.1585 Y8.0640
 X25.0503 Y8.0134
 X24.9494 Y7.9485
 X24.8469 Y7.8690
 X24.7551 Y7.7752
 X24.6673 Y7.6669
 X24.5854 Y7.5458
 X24.5081 Y7.4136
 X24.4361 Y7.2701
 X24.3719 Y7.1154
 X24.3135 Y6.9496
 X24.2597 Y6.7725
 X24.2122 Y6.5843
 X24.1687 Y6.3848
 X24.1554 Y6.3149
 X25.9066
 X25.7458 Y5.4684
 X23.9946
 X23.0677 Y0.5904
G0 Z25.0000
 X27.9612
G1 Z0.0000
 X27.9022 Y0.6916
 X27.8485 Y0.8321
 X27.8108 Y0.9864
 X27.7887 Y1.1543
 X27.7865 Y1.3359
 X27.8011 Y1.5313
 X27.8352 Y1.7403
 X27.8681 Y1.8841
 X27.9076 Y2.0265
 X27.9641 Y2.1675
 X28.0225 Y2.3069
 X28.0980 Y2.4450
 X28.1809 Y2.5816
 X28.2740 Y2.7167
 X28.3740 Y2.8504
 X28.4856 Y2.9810
 X28.6082 Y3.1067
 X28.7354 Y3.2277
 X28.8741 Y3.3439
 X29.0229 Y3.4552
 X29.1758 Y3.5616
 X29.3408 Y3.6634
 X29.5163 Y3.7602
 X29.7022 Y3.8536
 X29.9017 Y3.9448
 X30.1229 Y4.0338
 X30.3587 Y4.1207
 X30.6125 Y4.2053
 X30.8836 Y4.2878
 X31.1710 Y4.3680
 X31.4791 Y4.4462
 X31.5104 Y4.6106
 X31.5227 Y4.7210
 X31.5348 Y4.8276
 X31.5381 Y4.9303
 X31.5322 Y5.0291
 X31.5188 Y5.1239
 X31.4933 Y5.2150
 X31.4653 Y5.3021
 X31.4296 Y5.3853
 X31.3812 Y5.4614
 X31.3260 Y5.5274
 X31.2609 Y5.5833
 X31.1808 Y5.6290
 X31.0942 Y5.6646
 X30.9942 Y5.6899
 X30.8889 Y5.7052
 X30.7672 Y5.7103
 X30.6499 Y5.7061
 X30.5433 Y5.6937
 X30.4429 Y5.6729
 X30.3433 Y5.6439
 X30.2544 Y5.6066
 X30.1695 Y5.5609
 X30.0948 Y5.5070
 X30.0186 Y5.4448
 X29.9537 Y5.3750
 X29.8887 Y5.2983
 X29.8281 Y5.2147
 X29.7699 Y5.1243
 X29.7184 Y5.0269
 X29.6700 Y4.9228
 X29.6234 Y4.8117
 X29.5761 Y4.6937
 X28.6542
 X28.7214 Y4.8867
 X28.7957 Y5.0698
 X28.8874 Y5.2430
 X28.9902 Y5.4063
 X29.1073 Y5.5597
 X29.2408 Y5.7032
 X29.3825 Y5.8369
 X29.5422 Y5.9606
 X29.7062 Y6.0720
 X29.8736 Y6.1686
 X30.0455 Y6.2503
 X30.2112 Y6.3171
 X30.3847 Y6.3691
 X30.5553 Y6.4062
 X30.7278 Y6.4285
 X30.9051 Y6.4359
 X31.0996 Y6.4273
 X31.2852 Y6.4015
 X31.4575 Y6.3586
 X31.6182 Y6.2984
 X31.7610 Y6.2211
 X31.8943 Y6.1266
 X32.0165 Y6.0149
 X32.1209 Y5.8860
 X32.2155 Y5.7407
 X32.2911 Y5.5797
 X32.3418 Y5.4030
 X32.3792 Y5.2105
 X32.3946 Y5.0023
 X32.3941 Y4.7785
 X32.3709 Y4.5389
 X32.3320 Y4.2836
 X31.7447 Y1.1923
 X31.7238 Y1.0146
 X31.7081 Y0.8406
 X31.6948 Y0.6704
 X31.6944 Y0.5904
 X30.7793 Y0.7124
 X30.7031 Y0.6378
 X30.6508 Y0.5904
 X30.7687
 X30.7793 Y0.7121
G0 Z25.0000
 X34.3608 Y0.5904
G1 Z0.0000
 X35.4761 Y6.4604
 X36.3624
 X36.1808 Y5.5043
 X36.4047 Y5.7227
 X36.6224 Y5.9119
 X36.8436 Y6.0720
 X37.0602 Y6.2030
 X37.2746 Y6.3049
 X37.4927 Y6.3777
 X37.7058 Y6.4213
 X37.9193 Y6.4359
 X38.0859 Y6.4283
 X38.2452 Y6.4053
 X38.3993 Y6.3670
 X38.5472 Y6.3135
 X38.6900 Y6.2447
 X38.8230 Y6.1606
 X38.9498 Y6.0612
 X39.0670 Y5.9465
 X39.1758 Y5.8113
 X39.2562 Y5.6504
 X39.3199 Y5.4638
 X39.3542 Y5.2516
 X39.3728 Y5.0136
 X39.3676 Y4.7500
 X39.3370 Y4.4607
 X39.2880 Y4.1457
 X38.6125 Y0.5904
 X37.7276
 X38.4031 Y4.1457
 X38.4314 Y4.3354
 X38.4520 Y4.5087
 X38.4593 Y4.6655
 X38.4552 Y4.8059
 X38.4401 Y4.9298
 X38.4151 Y5.0373
 X38.3746 Y5.1284
 X38.3238 Y5.2030
 X38.2619 Y5.2652
 X38.1885 Y5.3191
 X38.1046 Y5.3647
 X38.0120 Y5.4020
 X37.9111 Y5.4311
 X37.7962 Y5.4518
 X37.6753 Y5.4642
 X37.5450 Y5.4684
 X37.4027 Y5.4604
 X37.2643 Y5.4363
 X37.1296 Y5.3962
 X36.9971 Y5.3399
 X36.8746 Y5.2677
 X36.7469 Y5.1793
 X36.6296 Y5.0749
 X36.5080 Y4.9544
 X36.3963 Y4.8216
 X36.2946 Y4.6801
 X36.1948 Y4.5299
 X36.1047 Y4.3711
 X36.0263 Y4.2035
 X35.9508 Y4.0273
 X35.8877 Y3.8423
 X35.8282 Y3.6488
 X35.2471 Y0.5904
G0 Z25.0000
 X17.0732 Y5.4684
G1 Z0.0000
 X16.9184 Y5.4619
 X16.7757 Y5.4422
 X16.6388 Y5.4094
 X16.5029 Y5.3635
 X16.3707 Y5.3045
 X16.2505 Y5.2325
 X16.1357 Y5.1473
 X16.0193 Y5.0489
 X15.9172 Y4.9429
 X15.8186 Y4.8347
 X15.7278 Y4.7242
 X15.6393 Y4.6115
 X15.5635 Y4.4965
 X15.4932 Y4.3793
 X15.4310 Y4.2599
 X15.3718 Y4.1381
 X18.2671
 X18.2637 Y4.2869
 X18.2528 Y4.4277
 X18.2316 Y4.5607
 X18.1977 Y4.6859
 X18.1584 Y4.8033
 X18.1097 Y4.9128
 X18.0502 Y5.0145
 X17.9807 Y5.1085
 X17.9034 Y5.1928
 X17.8148 Y5.2659
 X17.7178 Y5.3278
 X17.6087 Y5.3784
 X17.4928 Y5.4178
 X17.3614 Y5.4459
 X17.2212 Y5.4628
 X17.0732 Y5.4684
G0 Z25.0000
 X28.7803 Y1.7592
G1 Z0.0000
 X28.7617 Y1.6320
 X28.7520 Y1.5158
 X28.7522 Y1.4106
 X28.7660 Y1.3166
 X28.7869 Y1.2335
 X28.8180 Y1.1615
 X28.8637 Y1.1005
 X28.9136 Y1.0506
 X28.9729 Y1.0090
 X29.0377 Y0.9729
 X29.1012 Y0.9424
 X29.1685 Y0.9174
 X29.2415 Y0.8980
 X29.3134 Y0.8841
 X29.3899 Y0.8758
 X29.4738 Y0.8730
 X29.5574 Y0.8790
 X29.6386 Y0.8906
 X29.7292 Y0.9076
 X29.8176 Y0.9302
 X29.9069 Y0.9582
 X29.9974 Y0.9917
 X30.0930 Y1.0307
 X30.1866 Y1.0752
 X30.2837 Y1.1303
 X30.3813 Y1.2013
 X30.4852 Y1.2881
 X30.5831 Y1.3908
 X30.6858 Y1.5092
 X30.7903 Y1.6435
 X30.8984 Y1.7935
 X31.0067 Y1.9595
 X31.3233 Y3.6261
 X31.1065 Y3.5671
 X30.8991 Y3.5083
 X30.7070 Y3.4498
 X30.5278 Y3.3913
 X30.3626 Y3.3331
 X30.2087 Y3.2750
 X30.0688 Y3.2171
 X29.9384 Y3.1594
 X29.8207 Y3.0999
 X29.7068 Y3.0370
 X29.6034 Y2.9706
 X29.5004 Y2.9007
 X29.4069 Y2.8273
 X29.3188 Y2.7503
 X29.2419 Y2.6698
 X29.1660 Y2.5859
 X29.0944 Y2.4979
 X29.0320 Y2.4056
 X28.9744 Y2.3089
 X28.9249 Y2.2077
 X28.8780 Y2.1022
 X28.8403 Y1.9923
 X28.8085 Y1.8779
 X28.7803 Y1.7592
G0 Z25.0000
M5 (stop spindle)
G04 P3 (wait for 3 seconds)
G0 Z25.0000
M2 (end program)
